/* XPM */
/* This file can be converted to EPS by the GROMACS program xpm2ps */
/* title:   "C-alpha RMSD matrix" */
/* legend:  "RMSD (nm)" */
/* x-label: "Time (ps)" */
/* y-label: "Time (ps)" */
/* type:    "Continuous" */
static char *gromacs_xpm[] = {
"7 7   80 1",
"A  c #FFFFFF " /* "3.45e-09" */,
"B  c #FCFCFC " /* "0.00709" */,
"C  c #F9F9F9 " /* "0.0142" */,
"D  c #F5F5F5 " /* "0.0213" */,
"E  c #F2F2F2 " /* "0.0284" */,
"F  c #EFEFEF " /* "0.0354" */,
"G  c #ECECEC " /* "0.0425" */,
"H  c #E8E8E8 " /* "0.0496" */,
"I  c #E5E5E5 " /* "0.0567" */,
"J  c #E2E2E2 " /* "0.0638" */,
"K  c #DFDFDF " /* "0.0709" */,
"L  c #DBDBDB " /* "0.078" */,
"M  c #D8D8D8 " /* "0.0851" */,
"N  c #D5D5D5 " /* "0.0922" */,
"O  c #D2D2D2 " /* "0.0993" */,
"P  c #CFCFCF " /* "0.106" */,
"Q  c #CBCBCB " /* "0.113" */,
"R  c #C8C8C8 " /* "0.121" */,
"S  c #C5C5C5 " /* "0.128" */,
"T  c #C2C2C2 " /* "0.135" */,
"U  c #BEBEBE " /* "0.142" */,
"V  c #BBBBBB " /* "0.149" */,
"W  c #B8B8B8 " /* "0.156" */,
"X  c #B5B5B5 " /* "0.163" */,
"Y  c #B2B2B2 " /* "0.17" */,
"Z  c #AEAEAE " /* "0.177" */,
"a  c #ABABAB " /* "0.184" */,
"b  c #A8A8A8 " /* "0.191" */,
"c  c #A5A5A5 " /* "0.199" */,
"d  c #A1A1A1 " /* "0.206" */,
"e  c #9E9E9E " /* "0.213" */,
"f  c #9B9B9B " /* "0.22" */,
"g  c #989898 " /* "0.227" */,
"h  c #949494 " /* "0.234" */,
"i  c #919191 " /* "0.241" */,
"j  c #8E8E8E " /* "0.248" */,
"k  c #8B8B8B " /* "0.255" */,
"l  c #888888 " /* "0.262" */,
"m  c #848484 " /* "0.269" */,
"n  c #818181 " /* "0.276" */,
"o  c #7E7E7E " /* "0.284" */,
"p  c #7B7B7B " /* "0.291" */,
"q  c #777777 " /* "0.298" */,
"r  c #747474 " /* "0.305" */,
"s  c #717171 " /* "0.312" */,
"t  c #6E6E6E " /* "0.319" */,
"u  c #6B6B6B " /* "0.326" */,
"v  c #676767 " /* "0.333" */,
"w  c #646464 " /* "0.34" */,
"x  c #616161 " /* "0.347" */,
"y  c #5E5E5E " /* "0.354" */,
"z  c #5A5A5A " /* "0.362" */,
"0  c #575757 " /* "0.369" */,
"1  c #545454 " /* "0.376" */,
"2  c #515151 " /* "0.383" */,
"3  c #4D4D4D " /* "0.39" */,
"4  c #4A4A4A " /* "0.397" */,
"5  c #474747 " /* "0.404" */,
"6  c #444444 " /* "0.411" */,
"7  c #414141 " /* "0.418" */,
"8  c #3D3D3D " /* "0.425" */,
"9  c #3A3A3A " /* "0.432" */,
"!  c #373737 " /* "0.44" */,
"@  c #343434 " /* "0.447" */,
"#  c #303030 " /* "0.454" */,
"$  c #2D2D2D " /* "0.461" */,
"%  c #2A2A2A " /* "0.468" */,
"^  c #272727 " /* "0.475" */,
"&  c #242424 " /* "0.482" */,
"*  c #202020 " /* "0.489" */,
"(  c #1D1D1D " /* "0.496" */,
")  c #1A1A1A " /* "0.503" */,
"-  c #171717 " /* "0.51" */,
"_  c #131313 " /* "0.518" */,
"=  c #101010 " /* "0.525" */,
"+  c #0D0D0D " /* "0.532" */,
"{  c #0A0A0A " /* "0.539" */,
"}  c #060606 " /* "0.546" */,
"|  c #030303 " /* "0.553" */,
";  c #000000 " /* "0.56" */,
/* x-axis:  1 2 3 4 5 6 7 */
/* y-axis:  1 2 3 4 5 6 7 */
"68@9_;A",
"&@$@eA;",
"85@!Ae_",
"9QKA!@9",
"9VAK@$@",
"5AVQ5@8",
"A5998&6"
